X: 43238
T: Wizard's Walk, The
R: reel
M: 4/4
K: Eminor
e2 dc BAGF|GAFG E2 B2|e2 ef gfef|gafg e4|
a2 gf edcB|cdBc A2E2|A2 AB cBAB|cdBc A4||
BB[Bf]B B[Bf]BB|[cg]cc[cg] cc[cg]c|BB[Bf]B B[Bf]BB|[cg]cc[cg] cc[cg]c|
[Bf]BBB [cg]ccc|[Bf]BBB [cg]ccc|[Bf]B^cc ^ddee|ffgg aabb|
|:egbe bgeg|^dfbf bfdf|=dfab afdB|^ceae aecA|
=cege cege|Bege Bege|_Bege Bege|=Bege fe^de:|
|:"Coda"e2 dc BAGF G2 e2 F2 ^d2|e4 B2 G2|E4 e2:|

